X: 092
M: C
L: 1/8
K: F
c |\
facf dfBd | cAFA TGFDc | facf dfBd | cfeg f/f/f (fc) |
fadf cfBd | cfcA TGFGA | FcAc Bdgb | afce f/f/f f |]


